public/images/logos/javascript.svg

<svg width="28" height="28" viewBox="0 0 28 28" fill="none" xmlns="http://www.w3.org/2000/svg">
<path d="M26 2H2V26H26V2Z" fill="#F7DF1E"/>
<path d="M18.122 20.7502C18.6054 21.5395 19.2344 22.1197 20.3468 22.1197C21.2812 22.1197 21.8782 21.6526 21.8782 21.0073C21.8782 20.234 21.2649 19.9601 20.2363 19.5102L19.6725 19.2683C18.045 18.5749 16.9639 17.7064 16.9639 15.8702C16.9639 14.1787 18.2527 12.8911 20.2668 12.8911C21.7007 12.8911 22.7315 13.3902 23.4744 14.6968L21.7182 15.8244C21.3315 15.1311 20.9144 14.858 20.2668 14.858C19.6062 14.858 19.1875 15.277 19.1875 15.8244C19.1875 16.501 19.6066 16.7749 20.5742 17.194L21.138 17.4355C23.0542 18.2572 24.1361 19.0949 24.1361 20.9783C24.1361 23.0088 22.541 24.1212 20.399 24.1212C18.3045 24.1212 16.9513 23.1231 16.2892 21.8149L18.122 20.7502ZM10.1551 20.9456C10.5094 21.5742 10.8317 22.1056 11.6066 22.1056C12.3475 22.1056 12.815 21.8157 12.815 20.6884V13.0199H15.0702V20.7189C15.0702 23.0542 13.701 24.117 11.7026 24.117C9.89686 24.117 8.85115 23.1825 8.31934 22.057L10.1551 20.9456Z" fill="black"/>
</svg>

<svg xmlns="http://www.w3.org/2000/svg" width="28" height="28" fill="none" xmlns:v="https://vecta.io/nano"><path d="M26 2H2V26H26V2Z" fill="#f7df1e"/><path d="M18.122 20.75c.483.789 1.112 1.37 2.225 1.37.934 0 1.531-.467 1.531-1.112 0-.773-.613-1.047-1.642-1.497l-.564-.242c-1.627-.693-2.709-1.562-2.709-3.398 0-1.692 1.289-2.979 3.303-2.979 1.434 0 2.465.499 3.208 1.806l-1.756 1.128c-.387-.693-.804-.966-1.451-.966-.661 0-1.079.419-1.079.966 0 .677.419.95 1.387 1.37l.564.242c1.916.822 2.998 1.659 2.998 3.543 0 2.031-1.595 3.143-3.737 3.143-2.094 0-3.448-.998-4.11-2.306l1.833-1.065zm-7.967.195c.354.629.677 1.16 1.452 1.16.741 0 1.208-.29 1.208-1.417V13.02h2.255v7.699c0 2.335-1.369 3.398-3.368 3.398-1.806 0-2.851-.934-3.383-2.06l1.836-1.111z" fill="#000"/></svg>
